src/assets/icons/edit.svg

<svg width="32" height="32" viewBox="0 0 32 32" fill="none" xmlns="http://www.w3.org/2000/svg">
<rect width="32" height="32" rx="10" fill="white"/>
<path d="M21.335 9.20599L24.5467 12.6859C24.682 12.8325 24.682 13.0717 24.5467 13.2183L16.7703 21.6442L13.4661 22.0415C13.0245 22.0956 12.6507 21.6905 12.7005 21.2121L13.0673 17.6319L20.8436 9.20599C20.9789 9.05939 21.1997 9.05939 21.335 9.20599ZM27.1032 8.32251L25.3656 6.43981C24.8244 5.8534 23.9449 5.8534 23.4002 6.43981L22.1397 7.80554C22.0044 7.95215 22.0044 8.19134 22.1397 8.33795L25.3514 11.8179C25.4867 11.9645 25.7074 11.9645 25.8427 11.8179L27.1032 10.4521C27.6444 9.86185 27.6444 8.90893 27.1032 8.32251ZM20.6727 19.3525V23.28H9.27879V10.9344H17.4611C17.575 10.9344 17.6818 10.8842 17.7637 10.7993L19.188 9.25615C19.4586 8.96294 19.2663 8.46526 18.8853 8.46526H8.70909C7.76553 8.46526 7 9.29473 7 10.3171V23.8972C7 24.9196 7.76553 25.7491 8.70909 25.7491H21.2424C22.186 25.7491 22.9515 24.9196 22.9515 23.8972V17.8093C22.9515 17.3965 22.4922 17.192 22.2216 17.4814L20.7973 19.0246C20.719 19.1133 20.6727 19.2291 20.6727 19.3525Z" fill="#4FA1C1"/>
</svg>

<svg xmlns="http://www.w3.org/2000/svg" width="32" height="32" fill="none"><rect width="32" height="32" fill="#fff" rx="10"/><path fill="#4FA1C1" d="m21.335 9.206 3.212 3.48a.4.4 0 0 1 0 .532l-7.777 8.426-3.304.398c-.441.054-.815-.352-.765-.83l.366-3.58 7.777-8.426a.33.33 0 0 1 .491 0Zm5.768-.883L25.366 6.44a1.318 1.318 0 0 0-1.966 0l-1.26 1.366a.4.4 0 0 0 0 .532l3.211 3.48a.33.33 0 0 0 .492 0l1.26-1.366a1.6 1.6 0 0 0 0-2.13Zm-6.43 11.03v3.927H9.279V10.934h8.182c.114 0 .22-.05.303-.135l1.424-1.543c.27-.293.078-.79-.303-.79H8.71C7.766 8.465 7 9.294 7 10.316v13.58c0 1.023.766 1.852 1.71 1.852h12.532c.944 0 1.71-.83 1.71-1.852V17.81c0-.413-.46-.617-.73-.328l-1.425 1.544a.496.496 0 0 0-.124.328Z"/></svg>
